website/static/img/icons/white/folder.svg

<svg fill="none" height="27" viewBox="0 0 33 27" width="33" xmlns="http://www.w3.org/2000/svg"><path d="m32.6401 11.055c-.1411-.174-.3193-.3142-.5216-.4102-.2023-.0961-.4235-.1455-.6474-.1448h-2.9972v-1.49998c0-1.19347-.4737-2.33806-1.3168-3.18197-.8432-.84392-1.9867-1.31802-3.1791-1.31802h-9.4114l-.4795-1.5c-.3109-.88015-.8876-1.64174-1.6502-2.179256-.7625-.537513-1.6732-.82433934-2.60592-.82074054h-5.3351c-1.19238 0-2.33593.47410554-3.17907 1.31801654-.843139.84391-1.31681 1.98851-1.31681 3.18198v17.99997c0 1.1935.473671 2.3381 1.31681 3.182.84314.8439 1.98669 1.318 3.17907 1.318h21.58022c1.0209-.003 2.0103-.3536 2.8057-.9943.7953-.6406 1.3491-1.5331 1.5703-2.5307l2.5177-11.145c.0455-.2236.0395-.4547-.0176-.6756-.0571-.221-.1639-.426-.3121-.5994zm-26.09111 11.775c-.07613.3384-.26707.6399-.5403.8532-.27324.2133-.6119.3253-.95832.3168h-.55449c-.39746 0-.77864-.158-1.05969-.4393s-.43894-.6629-.43894-1.0607v-17.99997c0-.39783.15789-.77936.43894-1.06066s.66223-.43934 1.05969-.43934h5.3351c.32682-.01707.65022.07339.92082.25757s.4735.45196.5778.76243l.8093 2.46c.0961.28611.2763.53653.5169.71851.2407.18198.5306.28705.8318.30148h10.4904c.3975 0 .7787.15804 1.0597.43934.281.28131.4389.66284.4389 1.06066v1.49998h-14.9862c-.3464-.0085-.6851.1035-.95834.3168s-.46417.5148-.54031.8532zm20.98081 0c-.0762.3384-.2671.6399-.5404.8532-.2732.2133-.6118.3253-.9583.3168h-16.72464c.0774-.1671.13282-.3436.16485-.525l2.21799-9.975h17.9835z" fill="#fff"/></svg>

<svg width="33" height="27" viewBox="0 0 33 27" fill="none" xmlns="http://www.w3.org/2000/svg">
<path d="M32.6401 11.055C32.499 10.881 32.3208 10.7408 32.1185 10.6448C31.9162 10.5487 31.695 10.4993 31.4711 10.5H28.4739V9.00002C28.4739 7.80655 28.0002 6.66196 27.1571 5.81805C26.3139 4.97413 25.1704 4.50003 23.978 4.50003H14.5666L14.0871 3.00003C13.7762 2.11988 13.1995 1.35829 12.4369 0.820774C11.6744 0.283261 10.7637 -0.00356534 9.83098 3.34553e-05H4.49588C3.3035 3.34553e-05 2.15995 0.474139 1.31681 1.31805C0.473671 2.16196 0 3.30656 0 4.50003V22.5C0 23.6935 0.473671 24.8381 1.31681 25.682C2.15995 26.5259 3.3035 27 4.49588 27H26.0761C27.097 26.997 28.0864 26.6464 28.8818 26.0057C29.6771 25.3651 30.2309 24.4726 30.4521 23.475L32.9698 12.33C33.0153 12.1064 33.0093 11.8753 32.9522 11.6544C32.8951 11.4334 32.7883 11.2284 32.6401 11.055ZM6.54899 22.83C6.47286 23.1684 6.28192 23.4699 6.00869 23.6832C5.73545 23.8965 5.39679 24.0085 5.05037 24H4.49588C4.09842 24 3.71724 23.842 3.43619 23.5607C3.15514 23.2794 2.99725 22.8978 2.99725 22.5V4.50003C2.99725 4.1022 3.15514 3.72067 3.43619 3.43937C3.71724 3.15807 4.09842 3.00003 4.49588 3.00003H9.83098C10.1578 2.98296 10.4812 3.07342 10.7518 3.2576C11.0224 3.44178 11.2253 3.70956 11.3296 4.02003L12.1389 6.48003C12.235 6.76614 12.4152 7.01656 12.6558 7.19854C12.8965 7.38052 13.1864 7.48559 13.4876 7.50002H23.978C24.3755 7.50002 24.7567 7.65806 25.0377 7.93936C25.3187 8.22067 25.4766 8.6022 25.4766 9.00002V10.5H10.4904C10.144 10.4915 9.8053 10.6035 9.53206 10.8168C9.25882 11.0301 9.06789 11.3316 8.99175 11.67L6.54899 22.83ZM27.5298 22.83C27.4536 23.1684 27.2627 23.4699 26.9894 23.6832C26.7162 23.8965 26.3776 24.0085 26.0311 24H9.30646C9.38386 23.8329 9.43928 23.6564 9.47131 23.475L11.6893 13.5H29.6728L27.5298 22.83Z" fill="white"/>
</svg>
